lib/flags/s/PS.svg

<svg xmlns="http://www.w3.org/2000/svg" fill="none" viewBox="0 0 16 12"><mask id="PS_svg__a" width="16" height="12" x="0" y="0" maskUnits="userSpaceOnUse"><path fill="#fff" d="M0 0h16v12H0z"/></mask><g fill-rule="evenodd" clip-rule="evenodd" mask="url(#PS_svg__a)"><path fill="#F7FCFF" d="M0 0h16v12H0V0z"/><path fill="#5EAA22" d="M0 0v4h16V0H0z"/><path fill="#272727" d="M0 8v4h16V8H0z"/><path fill="#E31D1C" d="M0 1l8 5-8 5V1z"/></g></svg>

<svg xmlns="http://www.w3.org/2000/svg" fill="none" viewBox="0 0 16 12"><mask id="PS_svg__a" width="16" height="12" x="0" y="0" mask-type="alpha" maskUnits="userSpaceOnUse"><path fill="#fff" d="M0 0H16V12H0z"/></mask><g fill-rule="evenodd" clip-rule="evenodd" mask="url(#PS_svg__a)"><path fill="#F7FCFF" d="M0 0H16V12H0V0Z"/><path fill="#5EAA22" d="M0 0V4H16V0H0Z"/><path fill="#272727" d="M0 8V12H16V8H0Z"/><path fill="#E31D1C" d="M0 1L8 6L0 11V1Z"/></g></svg>
